; generated by Slic3r 1.1.7 on 2014-12-22 at 18:06:53

; perimeters extrusion width = 0.40mm
; infill extrusion width = 0.67mm
; solid infill extrusion width = 0.67mm
; top infill extrusion width = 0.67mm

G21 ; set units to millimeters
M107
M104 S210 ; set temperature
G28 ; home all axes
G1 Z5 F5000 ; lift nozzle

M109 S210 ; wait for temperature to be reached
G90 ; use absolute coordinates
G92 E0
M82 ; use absolute distances for extrusion
G1 F1800.000 E-1.00000
G92 E0
G1 Z0.400 F7800.000
G1 X93.259 Y93.259 F7800.000
G1 E1.00000 F1800.000
G1 X94.562 Y92.241 E1.19641 F600.000
G1 X95.549 Y91.649 E1.33302
G1 X97.682 Y90.825 E1.60460
G1 X98.682 Y90.625 E1.72572
G1 X101.313 Y90.624 E2.03827
G1 X101.580 Y90.677 E2.07060
G1 X102.320 Y90.826 E2.16018 F600.000
G1 X104.451 Y91.649 E2.43155
G1 X105.438 Y92.241 E2.56816
G1 X106.748 Y93.266 E2.76569
G1 X107.759 Y94.562 E2.96099
G1 X108.351 Y95.549 E3.09760
G1 X109.174 Y97.680 E3.36898
G1 X109.376 Y98.687 E3.49089
G1 X109.375 Y101.318 E3.80343
G1 X109.175 Y102.318 E3.92455
G1 X108.351 Y104.451 E4.19613
G1 X107.759 Y105.438 E4.33274
G1 X106.748 Y106.734 E4.52804
G1 X105.438 Y107.759 E4.72557
G1 X104.451 Y108.351 E4.86218
G1 X102.318 Y109.175 E5.13375
G1 X101.318 Y109.375 E5.25488
G1 X98.687 Y109.376 E5.56742
G1 X97.680 Y109.174 E5.68933
G1 X95.549 Y108.351 E5.96071
G1 X94.562 Y107.759 E6.09732
G1 X93.252 Y106.734 E6.29484
G1 X92.241 Y105.438 E6.49015
G1 X91.649 Y104.451 E6.62675
G1 X90.826 Y102.320 E6.89813
G1 X90.624 Y101.313 E7.02004
G1 X90.625 Y98.682 E7.33259
G1 X90.825 Y97.682 E7.45371
G1 X91.649 Y95.549 E7.72529
G1 X92.241 Y94.562 E7.86189
G1 X93.221 Y93.306 E8.05119
G1 F1800.000 E7.05119
G92 E0
G1 X100.662 Y100.662 F7800.000
G1 E1.00000 F1800.000
G1 X100.330 Y100.861 E1.04598 F600.000
G1 X99.999 Y100.927 E1.08600
G1 X99.669 Y100.861 E1.12599
G1 X99.338 Y100.662 E1.17184
G1 X99.139 Y100.331 E1.21770
G1 X99.073 Y100.001 E1.25769
G1 X99.139 Y99.670 E1.29771
G1 X99.338 Y99.338 E1.34369
G1 X99.670 Y99.139 E1.38966
G1 X100.001 Y99.073 E1.42969
G1 X100.331 Y99.139 E1.46967
G1 X100.662 Y99.338 E1.51553 F600.000
G1 X100.861 Y99.669 E1.56138
G1 X100.927 Y99.999 E1.60137
G1 X100.861 Y100.330 E1.64139
G1 X100.692 Y100.610 E1.68025
G1 X101.275 Y101.028 F7800.000
G1 X101.182 Y101.182 E1.70165 F600.000
G1 X100.591 Y101.537 E1.78349
G1 X99.999 Y101.655 E1.85522
G1 X99.408 Y101.537 E1.92687
G1 X98.817 Y101.183 E2.00862
G1 X98.463 Y100.592 E2.09038
G1 X98.345 Y100.001 E2.16203
G1 X98.463 Y99.409 E2.23375
G1 X98.818 Y98.818 E2.31559
G1 X99.409 Y98.463 E2.39743
G1 X99.559 Y98.433 E2.41568
G1 X100.001 Y98.345 E2.46916 F600.000
G1 X100.592 Y98.463 E2.54081
G1 X101.183 Y98.817 E2.62256
G1 X101.537 Y99.408 E2.70432
G1 X101.655 Y99.999 E2.77597
G1 X101.537 Y100.591 E2.84769
G1 X101.306 Y100.976 E2.90100
G1 X101.888 Y101.394 F7800.000
G1 X101.703 Y101.703 E2.94381 F600.000
G1 X100.853 Y102.213 E3.06150
G1 X100.000 Y102.384 E3.16488
G1 X99.146 Y102.213 E3.26825
G1 X98.297 Y101.703 E3.38591
G1 X97.787 Y100.854 E3.50356
G1 X97.616 Y100.000 E3.60693
G1 X97.787 Y99.147 E3.71031
G1 X98.297 Y98.297 E3.82800
G1 X99.147 Y97.787 E3.94568
G1 X100.000 Y97.616 E4.04907
G1 X100.182 Y97.653 E4.07108
G1 X100.854 Y97.787 E4.15243 F600.000
G1 X101.703 Y98.297 E4.27009
G1 X102.213 Y99.146 E4.38774
G1 X102.384 Y100.000 E4.49111
G1 X102.213 Y100.853 E4.59449
G1 X101.919 Y101.342 E4.66224
G1 X100.539 Y97.833 F7800.000
G1 X100.227 Y99.657 F7800.000
G1 X100.343 Y99.773 E4.68178 F600.000
G1 X99.773 Y100.343 E4.77745
G1 X99.657 Y100.227 E4.79699
M106 S255
M104 S205 ; set temperature
G1 F1800.000 E3.79699
G92 E0
G1 Z0.600 F7800.000
G1 X102.736 Y101.995 F7800.000
G1 E1.00000 F1800.000
M106 S255
G1 X102.484 Y102.351 E1.02281 F3600.000
G1 X102.351 Y102.484 E1.03261
G1 X101.519 Y103.078 E1.08603
G1 X100.783 Y103.322 E1.12652
G1 X99.999 Y103.409 E1.16774
G1 X99.215 Y103.322 E1.20895
G1 X98.479 Y103.078 E1.24946
G1 X97.649 Y102.484 E1.30281
G1 X97.516 Y102.351 E1.31261
G1 X96.922 Y101.521 E1.36596
G1 X96.678 Y100.785 E1.40647
G1 X96.591 Y100.001 E1.44768
G1 X96.678 Y99.217 E1.48890
G1 X96.922 Y98.481 E1.52939
G1 X97.516 Y97.649 E1.58281
G1 X97.649 Y97.516 E1.59261
G1 X98.481 Y96.922 E1.64603
G1 X99.217 Y96.678 E1.68652
G1 X100.001 Y96.591 E1.72774
G1 X100.547 Y96.651 E1.75645
M106 S255
M106 S255
G1 X100.785 Y96.678 E1.76894 F3600.000
G1 X101.521 Y96.922 E1.80946
G1 X102.351 Y97.516 E1.86281
G1 X102.484 Y97.649 E1.87260
G1 X103.078 Y98.479 E1.92596
G1 X103.322 Y99.215 E1.96647
G1 X103.409 Y99.999 E2.00768
G1 X103.322 Y100.783 E2.04889
G1 X103.078 Y101.519 E2.08939
G1 X102.771 Y101.946 E2.11686
M106 S255
G1 X103.062 Y102.226 F7800.000
M106 S255
G1 X102.790 Y102.610 E2.14149 F3600.000
G1 X102.610 Y102.790 E2.15473
G1 X101.703 Y103.439 E2.21302
G1 X100.870 Y103.715 E2.25887
G1 X100.000 Y103.812 E2.30462
G1 X99.129 Y103.715 E2.35037
G1 X98.296 Y103.438 E2.39623
G1 X97.389 Y102.790 E2.45448
G1 X97.210 Y102.611 E2.46772
G1 X96.562 Y101.704 E2.52597
G1 X96.285 Y100.871 E2.57183
G1 X96.188 Y100.000 E2.61758
G1 X96.285 Y99.130 E2.66333
G1 X96.561 Y98.297 E2.70918
G1 X97.210 Y97.390 E2.76747
G1 X97.390 Y97.210 E2.78072
G1 X98.297 Y96.561 E2.83900
G1 X99.130 Y96.285 E2.88485
G1 X99.693 Y96.223 E2.91444
M106 S255
M106 S255
G1 X100.000 Y96.188 E2.93061 F3600.000
G1 X100.871 Y96.285 E2.97636
G1 X101.704 Y96.562 E3.02221
G1 X102.611 Y97.210 E3.08046
G1 X102.790 Y97.389 E3.09370
G1 X103.438 Y98.296 E3.15195
G1 X103.715 Y99.129 E3.19781
G1 X103.812 Y100.000 E3.24356
G1 X103.715 Y100.870 E3.28932
G1 X103.439 Y101.703 E3.33516
G1 X103.097 Y102.177 E3.36569
M106 S255
G1 X103.389 Y102.457 F7800.000
M106 S255
G1 X103.096 Y102.870 E3.39213 F3600.000
G1 X102.870 Y103.096 E3.40882
G1 X101.901 Y103.789 E3.47105
G1 X100.957 Y104.108 E3.52314
G1 X100.000 Y104.214 E3.57343
G1 X99.043 Y104.108 E3.62373
G1 X98.099 Y103.789 E3.67581
G1 X97.130 Y103.096 E3.73804
G1 X96.904 Y102.870 E3.75472
G1 X96.187 Y101.845 E3.82006
G1 X95.892 Y100.957 E3.86897
G1 X95.786 Y100.000 E3.91927
G1 X95.892 Y99.043 E3.96956
G1 X96.211 Y98.099 E4.02165
G1 X96.904 Y97.130 E4.08388
G1 X97.130 Y96.904 E4.10057
G1 X98.155 Y96.187 E4.16591
G1 X99.043 Y95.892 E4.21483
G1 X100.000 Y95.786 E4.26512
G1 X100.635 Y95.856 E4.29851
M106 S255
M106 S255
G1 X100.957 Y95.892 E4.31541 F3600.000
G1 X101.901 Y96.211 E4.36749
G1 X102.870 Y96.904 E4.42972
G1 X103.096 Y97.130 E4.44641
G1 X103.813 Y98.155 E4.51175
G1 X104.108 Y99.043 E4.56066
G1 X104.214 Y100.000 E4.61095
G1 X104.108 Y100.957 E4.66125
G1 X103.789 Y101.901 E4.71334
G1 X103.424 Y102.408 E4.74599
M106 S255
G1 X102.308 Y102.043 F7800.000
M106 S255
G1 X102.043 Y102.308 E4.76559 F3600.000
M106 S255
G1 X100.671 Y103.011 F7800.000
M106 S255
G1 X103.011 Y100.671 E4.93852 F3600.000
G1 X103.079 Y99.934 E4.97717
G1 X99.934 Y103.079 E5.20949
G1 X99.331 Y103.012 E5.24117
G1 X103.012 Y99.331 E5.51308
G1 X102.853 Y98.821 E5.54101
G1 X98.821 Y102.853 E5.83888
G1 X98.387 Y102.617 E5.86468
G1 X102.617 Y98.387 E6.17717
G1 X102.338 Y97.997 E6.20224
G1 X97.997 Y102.338 E6.52296
G1 X97.662 Y102.003 E6.54769
G1 X102.003 Y97.662 E6.86840
G1 X101.613 Y97.383 E6.89347
G1 X97.383 Y101.613 E7.20597
G1 X97.147 Y101.179 E7.23176
G1 X101.179 Y97.147 E7.52963
G1 X100.669 Y96.988 E7.55756
G1 X96.988 Y100.669 E7.82948
G1 X96.921 Y100.066 E7.86116
G1 X100.066 Y96.921 E8.09348
G1 X99.329 Y96.989 E8.13213
G1 X96.989 Y99.329 E8.30506
M106 S255
G1 X97.692 Y97.957 F7800.000
M106 S255
G1 X97.957 Y97.692 E8.32466 F3600.000
M106 S255
G1 F1800.000 E7.32466
G92 E0
G1 Z0.800 F7800.000
G1 X103.418 Y102.479 F7800.000
G1 E1.00000 F1800.000
G1 X103.253 Y102.690 E1.00891 F600.000
G1 X102.690 Y103.253 E1.03537
G1 X102.520 Y103.387 E1.04257
G1 X101.595 Y103.914 E1.07800
G1 X100.825 Y104.148 E1.10474
G1 X99.999 Y104.223 E1.13233
G1 X99.178 Y104.148 E1.15977
G1 X98.404 Y103.914 E1.18664
G1 X97.553 Y103.441 E1.21903
G1 X97.305 Y103.249 E1.22947
G1 X96.751 Y102.695 E1.25553
G1 X96.559 Y102.447 E1.26597
G1 X96.086 Y101.596 E1.29836
G1 X95.852 Y100.822 E1.32524
G1 X95.777 Y100.001 E1.35267
G1 X95.853 Y99.168 E1.38049
G1 X96.086 Y98.405 E1.40701
G1 X96.564 Y97.546 E1.43972
G1 X96.747 Y97.310 E1.44966
G1 X97.310 Y96.747 E1.47612
G1 X97.548 Y96.562 E1.48616
G1 X98.405 Y96.086 E1.51878
G1 X99.175 Y95.852 E1.54555
G1 X100.001 Y95.777 E1.57311
G1 X100.759 Y95.846 E1.59844
G1 X101.213 Y95.958 E1.61399 F600.000
G1 X101.596 Y96.086 E1.62740
G1 X102.447 Y96.559 E1.65980
G1 X102.695 Y96.751 E1.67024
G1 X103.249 Y97.305 E1.69629
G1 X103.441 Y97.553 E1.70673
G1 X103.914 Y98.404 E1.73912
G1 X104.148 Y99.178 E1.76600
G1 X104.223 Y99.999 E1.79344
G1 X104.148 Y100.825 E1.82103
G1 X103.914 Y101.595 E1.84777
G1 X103.450 Y102.429 E1.87952
G1 X102.397 Y103.924 F7800.000
G1 X101.838 Y104.237 E1.90083 F600.000
M106 S255
G1 X101.757 Y104.282 E1.90568 F3600.000
G1 X101.328 Y104.426 E1.92929
G1 X100.900 Y104.543 E1.95252
G1 X100.000 Y104.624 E1.99973
G1 X99.107 Y104.544 E2.04657
G1 X98.671 Y104.425 E2.07015
G1 X98.243 Y104.282 E2.09375
G1 X98.159 Y104.236 E2.09873
M106 S255
G1 X97.606 Y103.928 E2.11979 F600.000
M106 S255
G1 X97.332 Y103.776 E2.13617 F3600.000
G1 X96.951 Y103.460 E2.16202
M106 S255
G1 X96.540 Y103.049 E2.18135 F600.000
M106 S255
G1 X96.224 Y102.668 E2.20720 F3600.000
G1 X96.072 Y102.394 E2.22358
M106 S255
G1 X95.764 Y101.841 E2.24464 F600.000
M106 S255
G1 X95.718 Y101.757 E2.24962 F3600.000
G1 X95.575 Y101.329 E2.27323
G1 X95.456 Y100.893 E2.29681
G1 X95.376 Y100.000 E2.34365
G1 X95.457 Y99.100 E2.39086
G1 X95.574 Y98.673 E2.41404
G1 X95.718 Y98.243 E2.43769
G1 X95.763 Y98.162 E2.44254
M106 S255
G1 X96.076 Y97.603 E2.46386 F600.000
M106 S255
G1 X96.227 Y97.327 E2.48027 F3600.000
G1 X96.539 Y96.953 E2.50571
M106 S255
G1 X96.953 Y96.539 E2.52520 F600.000
M106 S255
G1 X97.329 Y96.226 E2.55073 F3600.000
G1 X97.603 Y96.076 E2.56706
M106 S255
G1 X98.162 Y95.763 E2.58838 F600.000
M106 S255
G1 X98.243 Y95.718 E2.59322 F3600.000
G1 X98.672 Y95.574 E2.61684
G1 X99.105 Y95.457 E2.64030
G1 X100.000 Y95.376 E2.68726
G1 X100.893 Y95.456 E2.73410
G1 X101.329 Y95.575 E2.75769
G1 X101.757 Y95.718 E2.78129
G1 X101.841 Y95.764 E2.78627
M106 S255
G1 X102.394 Y96.072 E2.80733 F600.000
M106 S255
G1 X102.668 Y96.224 E2.82371 F3600.000
G1 X103.049 Y96.540 E2.84956
M106 S255
G1 X103.460 Y96.951 E2.86889 F600.000
M106 S255
G1 X103.776 Y97.332 E2.89474 F3600.000
G1 X103.928 Y97.606 E2.91112
M106 S255
G1 X104.236 Y98.159 E2.93218 F600.000
M106 S255
G1 X104.282 Y98.243 E2.93716 F3600.000
G1 X104.425 Y98.671 E2.96076
G1 X104.544 Y99.107 E2.98435
G1 X104.624 Y100.000 E3.03119
G1 X104.543 Y100.900 E3.07839
G1 X104.426 Y101.328 E3.10162
G1 X104.282 Y101.757 E3.12523
G1 X104.237 Y101.838 E3.13008
M106 S255
G1 X103.924 Y102.397 E3.15139 F600.000
G1 X103.737 Y102.720 F7800.000
M106 S255
G1 X103.461 Y103.047 E3.17371 F3600.000
M106 S255
G1 X103.047 Y103.461 E3.19320 F600.000
M106 S255
G1 X102.673 Y103.773 E3.21864 F3600.000
G1 X102.397 Y103.924 E3.23506
M106 S255
G1 X103.924 Y102.397 F7800.000
M106 S255
G1 X103.773 Y102.673 E3.25147 F3600.000
M106 S255
G1 X104.056 Y102.962 F7800.000
M106 S255
G1 X103.851 Y103.224 E3.26887 F3600.000
G1 X103.224 Y103.851 E3.31516
G1 X102.891 Y104.109 E3.33720
G1 X101.919 Y104.650 E3.39530
G1 X101.445 Y104.809 E3.42144
G1 X100.967 Y104.939 E3.44732
G1 X100.000 Y105.026 E3.49803
G1 X99.036 Y104.939 E3.54862
G1 X98.555 Y104.808 E3.57462
G1 X98.081 Y104.650 E3.60075
G1 X97.111 Y104.110 E3.65875
G1 X96.775 Y103.850 E3.68095
G1 X96.150 Y103.225 E3.72711
G1 X95.890 Y102.889 E3.74931
G1 X95.350 Y101.919 E3.80731
G1 X95.192 Y101.445 E3.83344
G1 X95.061 Y100.964 E3.85944
G1 X94.974 Y100.000 E3.91003
G1 X95.061 Y99.033 E3.96074
G1 X95.191 Y98.556 E3.98661
G1 X95.350 Y98.081 E4.01276
G1 X95.891 Y97.109 E4.07085
G1 X96.149 Y96.776 E4.09290
G1 X96.776 Y96.149 E4.13919
G1 X97.110 Y95.890 E4.16126
G1 X98.081 Y95.350 E4.21933
G1 X98.555 Y95.191 E4.24546
G1 X99.035 Y95.061 E4.27143
G1 X100.000 Y94.974 E4.32205
G1 X100.832 Y95.049 E4.36568
M106 S255
M106 S255
G1 X100.964 Y95.061 E4.37264 F3600.000
G1 X101.445 Y95.192 E4.39865
G1 X101.919 Y95.350 E4.42477
G1 X102.889 Y95.890 E4.48277
G1 X103.225 Y96.150 E4.50497
G1 X103.850 Y96.775 E4.55113
G1 X104.110 Y97.111 E4.57333
G1 X104.650 Y98.081 E4.63133
G1 X104.808 Y98.555 E4.65746
G1 X104.939 Y99.036 E4.68347
G1 X105.026 Y100.000 E4.73405
G1 X104.939 Y100.967 E4.78476
G1 X104.809 Y101.445 E4.81065
G1 X104.650 Y101.919 E4.83678
G1 X104.092 Y102.914 E4.89637
M106 S255
G1 X103.836 Y99.285 F7800.000
G1 X100.717 Y96.166 E5.12681 F600.000
G1 X99.762 Y96.122 E5.17675
G1 X103.879 Y100.238 E5.48091
G1 X103.752 Y101.022 E5.52239
G1 X98.978 Y96.248 E5.87517
G1 X98.321 Y96.500 E5.91196
G1 X103.500 Y101.679 E6.29462
G1 X103.174 Y102.264 E6.32958
G1 X97.736 Y96.826 E6.73143
G1 X97.270 Y97.270 E6.76506
G1 X102.730 Y102.730 E7.16849
G1 X102.264 Y103.174 E7.20212
G1 X96.826 Y97.736 E7.60397
G1 X96.500 Y98.321 E7.63893
G1 X101.679 Y103.500 E8.02159
G1 X101.022 Y103.752 E8.05838
G1 X96.247 Y98.977 E8.41121
G1 X96.122 Y99.762 E8.45273
G1 X100.238 Y103.879 E8.75689
G1 X99.283 Y103.834 E8.80683
G1 X96.164 Y100.715 E9.03727
G1 X96.894 Y102.355 F7800.000
G1 X97.645 Y103.106 E9.09273 F600.000
G1 X103.106 Y97.645 F7800.000
G1 X102.355 Y96.894 E9.14819 F600.000
G1 F1800.000 E8.14819
G92 E0
G1 Z1.000 F7800.000
G1 X103.962 Y102.891 F7800.000
G1 E1.00000 F1800.000
G1 X103.613 Y103.335 E1.01878 F600.000
G1 X103.335 Y103.613 E1.03187
G1 X102.603 Y104.180 E1.06265
G1 X102.202 Y104.385 E1.07763
G1 X101.666 Y104.620 E1.09711
G1 X100.833 Y104.845 E1.12582
G1 X99.999 Y104.922 E1.15365
G1 X99.178 Y104.847 E1.18109
G1 X98.358 Y104.630 E1.20927
G1 X97.474 Y104.229 E1.24155
G1 X96.666 Y103.613 E1.27536
G1 X96.390 Y103.338 E1.28832
G1 X95.815 Y102.594 E1.31960
G1 X95.379 Y101.661 E1.35387
G1 X95.153 Y100.822 E1.38275
G1 X95.078 Y100.001 E1.41019
G1 X95.155 Y99.167 E1.43801
G1 X95.372 Y98.351 E1.46610
G1 X95.763 Y97.487 E1.49766
G1 X96.387 Y96.666 E1.53195
G1 X96.665 Y96.387 E1.54507
G1 X97.406 Y95.815 E1.57620
G1 X97.798 Y95.615 E1.59082
G1 X98.334 Y95.380 E1.61030
G1 X99.175 Y95.154 E1.63927
G1 X100.001 Y95.078 E1.66684
G1 X100.822 Y95.153 E1.69428
G1 X101.661 Y95.379 E1.72315 F600.000
G1 X102.526 Y95.771 E1.75473
G1 X103.338 Y96.390 E1.78872
G1 X103.613 Y96.666 E1.80167
G1 X104.182 Y97.401 E1.83260
G1 X104.630 Y98.358 E1.86775
G1 X104.847 Y99.178 E1.89593
G1 X104.922 Y99.999 E1.92337
G1 X104.845 Y100.833 E1.95120
G1 X104.620 Y101.666 E1.97991
G1 X104.237 Y102.513 E2.01084
G1 X103.998 Y102.843 E2.02439
G1 X104.281 Y103.132 F7800.000
G1 X103.912 Y103.601 E2.04422 F600.000
G1 X103.601 Y103.912 E2.05888
G1 X102.708 Y104.588 E2.09611
G1 X101.800 Y104.998 E2.12927
G1 X101.353 Y105.127 E2.14471
G1 X100.900 Y105.241 E2.16028
G1 X100.000 Y105.323 E2.19033
G1 X99.107 Y105.242 E2.22016
G1 X98.330 Y105.040 E2.24686
G1 X98.215 Y105.004 E2.25085
G1 X97.285 Y104.583 E2.28482
G1 X96.400 Y103.913 E2.32175
G1 X96.090 Y103.603 E2.33633
G1 X95.417 Y102.715 E2.37336
G1 X95.001 Y101.796 E2.40691
G1 X94.758 Y100.893 E2.43801
G1 X94.677 Y100.000 E2.46784
G1 X94.759 Y99.100 E2.49789
G1 X94.875 Y98.636 E2.51380
G1 X94.997 Y98.211 E2.52853
G1 X95.412 Y97.292 E2.56206
G1 X96.087 Y96.400 E2.59928
G1 X96.399 Y96.088 E2.61395
G1 X97.173 Y95.489 E2.64650
G1 X97.292 Y95.412 E2.65120
G1 X98.201 Y95.002 E2.68436
G1 X99.105 Y94.759 E2.71552
G1 X99.206 Y94.749 E2.71889
G1 X100.000 Y94.677 E2.74542 F600.000
G1 X100.893 Y94.758 E2.77524
G1 X101.796 Y95.001 E2.80634
G1 X102.715 Y95.417 E2.83989
G1 X103.603 Y96.090 E2.87693
G1 X103.913 Y96.400 E2.89151
G1 X104.583 Y97.285 E2.92843
G1 X105.004 Y98.215 E2.96240
G1 X105.040 Y98.330 E2.96639
G1 X105.242 Y99.107 E2.99310
G1 X105.323 Y100.000 E3.02292
G1 X105.241 Y100.900 E3.05298
G1 X104.998 Y101.800 E3.08398
G1 X104.588 Y102.708 E3.11714
G1 X104.317 Y103.084 E3.13255
G1 X104.600 Y103.373 F7800.000
M106 S255
G1 X104.212 Y103.867 E3.16536 F3600.000
G1 X103.867 Y104.212 E3.19085
G1 X103.061 Y104.836 E3.24408
G1 X102.903 Y104.938 E3.25394
G1 X101.933 Y105.376 E3.30953
G1 X101.462 Y105.512 E3.33516
G1 X100.967 Y105.637 E3.36184
G1 X100.000 Y105.725 E3.41255
G1 X99.036 Y105.637 E3.46314
